images/icons/instagram.svg

<svg width="28" height="27" viewBox="0 0 28 27" fill="none" xmlns="http://www.w3.org/2000/svg">
<path d="M23.1972 0.00695801H3.93441C1.75958 0.00695801 0.10257 1.66397 0.10257 3.8388V23.1016C0.10257 25.2764 1.75958 26.9334 3.93441 26.9334H23.1972C25.372 26.9334 27.029 25.2764 27.029 23.1016V3.8388C27.029 1.66397 25.372 0.00695801 23.1972 0.00695801ZM13.5658 21.5481C18.019 21.5481 21.6437 18.027 21.6437 13.7809C21.6437 13.0559 21.5402 12.2274 21.3331 11.6061H23.6114V22.5838C23.6114 23.1016 23.1972 23.6194 22.5758 23.6194H4.5558C4.03798 23.6194 3.52016 23.2051 3.52016 22.5838V11.5025H5.90212C5.695 12.2274 5.59143 12.9524 5.59143 13.6773C5.48787 18.027 9.11258 21.5481 13.5658 21.5481ZM13.5658 18.4412C10.666 18.4412 8.38764 16.1628 8.38764 13.3666C8.38764 10.5704 10.666 8.29202 13.5658 8.29202C16.4656 8.29202 18.744 10.5704 18.744 13.3666C18.744 16.2664 16.4656 18.4412 13.5658 18.4412ZM23.5079 7.35995C23.5079 7.98133 22.9901 8.49915 22.3687 8.49915H19.4689C18.8475 8.49915 18.3297 7.98133 18.3297 7.35995V4.56374C18.3297 3.94236 18.8475 3.42455 19.4689 3.42455H22.3687C22.9901 3.42455 23.5079 3.94236 23.5079 4.56374V7.35995Z" fill="white"/>
</svg>

<svg width="28" height="27" fill="none" xmlns="http://www.w3.org/2000/svg"><path d="M23.197.007H3.934C1.76.007.103 1.664.103 3.839v19.263c0 2.174 1.657 3.831 3.831 3.831h19.263c2.175 0 3.832-1.657 3.832-3.831V3.839c0-2.175-1.657-3.832-3.832-3.832Zm-9.631 21.541c4.453 0 8.078-3.521 8.078-7.767 0-.725-.104-1.554-.31-2.175h2.277v10.978c0 .518-.414 1.035-1.035 1.035H4.556a1.038 1.038 0 0 1-1.036-1.035V11.502h2.382a7.884 7.884 0 0 0-.31 2.175c-.104 4.35 3.52 7.871 7.974 7.871Zm0-3.107c-2.9 0-5.178-2.278-5.178-5.074 0-2.797 2.278-5.075 5.178-5.075s5.178 2.278 5.178 5.075c0 2.9-2.278 5.074-5.178 5.074ZM23.508 7.36a1.15 1.15 0 0 1-1.14 1.14h-2.9a1.15 1.15 0 0 1-1.138-1.14V4.564c0-.622.518-1.14 1.139-1.14h2.9c.621 0 1.139.518 1.139 1.14V7.36Z" fill="#fff"/></svg>
